Obsidian/places/16s/mail-replies-symbolic.svg

<svg height="16" width="16" xmlns="http://www.w3.org/2000/svg" xmlns:xlink="http://www.w3.org/1999/xlink"><linearGradient id="a" gradientUnits="userSpaceOnUse" x1="6.258188" x2="6.258188" xlink:href="#b" y1="1" y2="8.519556"/><linearGradient id="b"><stop offset="0"/><stop offset="1" stop-color="#363636"/></linearGradient><linearGradient id="c" gradientUnits="userSpaceOnUse" x1="11.436951" x2="11.436951" xlink:href="#b" y1="1" y2="15.165655"/><g fill-rule="evenodd"><path d="m0 6.9849782 7-5v3h5l3-3-3 6h-3v-3l-6 4.5-3-2.5zm16-5v8.6421298s-.514467 3.388713-4 3.388713l-4 .032273v2.065501l-6.0958663-4.518284 6.0958663-4.615103v2.0655009l4.541964-.0607307" fill="#fff" opacity=".6"/><path d="m0 6 7-5v3h5l3-3-3 6h-3v-3l-6 4.5-3-2.5z" fill="url(#a)" opacity=".7"/><path d="m16 1v8.6421299s-.514467 3.3887131-4 3.3887131l-4 .032273v2.065501l-6.0958663-4.518284 6.0958663-4.6151032v2.0655009l4.541964-.0607307" fill="url(#c)" opacity=".7"/></g></svg>

<?xml version="1.0" encoding="UTF-8" standalone="no"?>
<!-- Created with Inkscape (http://www.inkscape.org/) -->
<svg
   xmlns:svg="http://www.w3.org/2000/svg"
   xmlns="http://www.w3.org/2000/svg"
   xmlns:xlink="http://www.w3.org/1999/xlink"
   version="1.0"
   width="16"
   height="16"
   id="svg3210">
  <defs
     id="defs3212">
    <linearGradient
       x1="10.482667"
       y1="3.9700928"
       x2="10.482667"
       y2="11.489649"
       id="linearGradient3203"
       xlink:href="#linearGradient3587-6-5"
       gradientUnits="userSpaceOnUse"
       gradientTransform="translate(-4.224479,-2.9700928)" />
    <linearGradient
       id="linearGradient3587-6-5">
      <stop
         id="stop3589-9-2"
         style="stop-color:#000000;stop-opacity:1"
         offset="0" />
      <stop
         id="stop3591-7-4"
         style="stop-color:#363636;stop-opacity:1"
         offset="1" />
    </linearGradient>
    <linearGradient
       x1="15.66143"
       y1="3.9700928"
       x2="15.66143"
       y2="18.135748"
       id="linearGradient3201"
       xlink:href="#linearGradient3587-6-5"
       gradientUnits="userSpaceOnUse"
       gradientTransform="translate(-4.224479,-2.9700928)" />
  </defs>
  <g
     id="layer1">
    <path
       d="M 0,6.9849782 L 7,1.9849782 L 7,4.9849782 L 12,4.9849782 L 15,1.9849782 L 12,7.9849782 L 9,7.9849782 L 9,4.9849782 L 3,9.4849782 L 0,6.9849782 z M 16,1.9849782 L 16,10.627108 C 16,10.627108 15.485533,14.015821 12,14.015821 L 8,14.048094 L 8,16.113595 L 1.9041337,11.595311 L 8,6.980208 L 8,9.0457089 L 12.541964,8.9849782"
       id="path3205"
       style="opacity:0.6;fill:#ffffff;fill-opacity:1;fill-rule:evenodd;stroke:none;stroke-width:1;stroke-linecap:butt;stroke-linejoin:miter;marker:none;marker-start:none;marker-mid:none;marker-end:none;stroke-miterlimit:4;stroke-dasharray:none;stroke-dashoffset:0;stroke-opacity:1;visibility:visible;display:inline;overflow:visible;enable-background:accumulate" />
    <path
       d="M 0,6 L 7,1 L 7,4 L 12,4 L 15,1 L 12,7 L 9,7 L 9,4 L 3,8.5 L 0,6 z"
       id="path2427"
       style="opacity:0.7;fill:url(#linearGradient3203);fill-opacity:1;fill-rule:evenodd;stroke:none;stroke-width:1;stroke-linecap:butt;stroke-linejoin:miter;marker:none;marker-start:none;marker-mid:none;marker-end:none;stroke-miterlimit:4;stroke-dasharray:none;stroke-dashoffset:0;stroke-opacity:1;visibility:visible;display:inline;overflow:visible;enable-background:accumulate" />
    <path
       d="M 16,1 L 16,9.6421299 C 16,9.6421299 15.485533,13.030843 12,13.030843 L 8,13.063116 L 8,15.128617 L 1.9041337,10.610333 L 8,5.9952298 L 8,8.0607307 L 12.541964,8"
       id="path2429"
       style="opacity:0.7;fill:url(#linearGradient3201);fill-opacity:1;fill-rule:evenodd;stroke:none;stroke-width:1;stroke-linecap:butt;stroke-linejoin:miter;marker:none;marker-start:none;marker-mid:none;marker-end:none;stroke-miterlimit:4;stroke-dasharray:none;stroke-dashoffset:0;stroke-opacity:1;visibility:visible;display:inline;overflow:visible;enable-background:accumulate" />
  </g>
</svg>
